X: 77
T:Ffanni Blodau'r Ffair
M:6/8
L:1/8
Q:130
C:Trad
S:Blodau'r Grug Collection Vol. 3
A:Wales
Z:brian_martin12345@yahoo.com
K:G
G|B2B Bcd|e3-efg|d2dc2c|B3-B2G|B2GA2F|G3-G2F|E>FG A2F|D3-D2:||!
D|A2AA2B|c3-cBA|G2GG2A|B3-B2B|d2BG2g|g2e dBG|E>FG G2F|G3-G2:||

